X: 102
T: The Reel o' Cupar
C: Bert Murray
R: reel
B: Bert Murray's "Bon Accord Collection" 1999 p.10
%
Z: 2011 John Chambers <jc:trillian.mit.edu>
M: 4/4
L: 1/8
K: Em
uB |\
G>E .E.E/.E/ (EF)GF | EBBA B2(dB) | (AG/F/) (GF/E/) DEFA | dAFA BAGF |
G>E .E.E/.E/ (EF)GF | EDEF GFGA | Beed BAGA | BEED E3 ||
uA |\
Beef gfge | dBGB AFDF | Beef gfge | fdaf e2(ed) |
Beef gfge | fgag fddf | (gf/e/) (dc/B/) AcBA | BEED E3 |]

%%sep 2 1 500

